X:7268
T:The Red Crow
O:england
M:C|
L:1/8
C:Altan
D:The Red Crow
K:ADor
A,2EA, B,G,G,B, A,2EG FDEG | AGED EA,A,D ECDC B,G,G,B, |
A,2EA, B,G,G,B, A,2EG FDEG |1 AGED EA,A,C DB,G,B, A,2(3G,A,B, :|
|2 AGED EA,A,C DB,G,B, A,2 (3AAA [|
A2eA ceAc eAce dcBA | G2dc BdGB dGBd edcB |
A2eA ceAc eAcb ageg | age^c d=fed =cABG A2AG |
A2eA ceAc eAce dcBA | G2dc BdGB dGBd edcB |
A2aA gAfA (3AAA cA BAGB | cABG AGED ECDB, CA,B,G, ||


